X:1
T:Cantabile in B-flat major 
T:B. 84
T:Frédéric Chopin
T:Public Domain (PianoXML typeset)
Z:Public Domain (PianoXML typeset)
%%score { 1 2 }
L:1/8
Q:1/4=45
M:6/8
K:Bb
V:1 treble 
V:2 bass 
V:1
"^(Andantino)""_dolce" (!4!d3 !>!!3!d2 c | PAGA B>)(!5!ba/!3!g/ | %2
!>(! !5!g>f=B/c/ !4!e-[Q:1/4=42](3e/!4!d/!3!^F/[Q:1/4=40] (3!1!G/=f/e/!>)! | %3
[Q:1/4=43]"^ten." c3-[Q:1/4=43] c2)[Q:1/4=40]!<(! (F!<)![Q:1/4=45][Q:1/4=42] |[Q:1/4=45] d3 d2 c | %5
{/B} A.^G.A .B2 c | .F) (g/f/a/b/ d>fc/f/ | B3- B) z[Q:1/4=42] z | %8
[Q:1/4=46]!pp! (!2!c3- c!3!d/)!1!c/!5!f/!3!d/ | c B2-[Q:1/4=45] B z[Q:1/4=42] z | %10
[Q:1/4=45]"_dim." (c3- c[Q:1/4=43]d/c/[Q:1/4=42]f/d/ |"_e.        rall." c3 B3)[Q:1/4=40] | %12
"_smorzando" z (.[Dc].[DB]) z (.[Dc][Q:1/4=30].[DB]) | z6 |] %14
V:2
!ped! .B,,[F,B,D][B,D_A]!ped-up!!ped! .E,,[G,C][CG]!ped-up! | %1
!ped! .F,,[F,CE][CEF]!ped-up!!ped! .B,,[F,B,D][B,DF]!ped-up! | %2
!ped! .A,,[F,CE][CF]!ped-up!!ped! .B,,[F,B,D][E,G,C]!ped-up! | %3
!ped! .F,,!>(!([CA][B,CG]!ped-up!!ped! [A,CF][G,B,E][A,C])!>)!!ped-up! | %4
!ped! .B,,[F,B,D][B,D_A]!ped-up!!ped! .E,,[G,C][CG]!ped-up! | %5
!ped! .^F,,[_E,C][^F,CE]!ped-up!!ped! .G,,[=E,C][B,C=E]!ped-up! | %6
!ped! .F,,[F,B,D][B,DF]!ped-up!!ped! .F,,[F,A,_E][A,EF]!ped-up! | %7
!ped! .B,,!>(!([_A,B,F][G,B,=E]!ped-up!!ped! [_G,B,_E][G,B,E][F,B,D])!>)!!ped-up! | %8
!ped! .B,,[=E,=G,C][G,C=E]!ped-up!!ped! .B,,[F,A,_E][A,EF]!ped-up! | %9
!ped! .B,,!>(!([_A,B,F][G,B,=E]!ped-up!!ped! [_G,B,_E][G,B,E][F,B,D])!>)!!ped-up! | %10
!ped! .B,,[=E,G,C][G,C=E]!ped-up!!ped! .B,,[F,A,_E][A,EF]!ped-up! | %11
!ped! B,,(.[B,DG].[B,DF])!ped-up! z!ped! (.[F,B,E].[F,B,D])!ped-up! | %12
 z!ped! (.[B,,F,].[B,,F,])!ped-up! z!ped! (.[B,,F,].[B,,F,])!ped-up! |!ped! B,,,6!ped-up! |] %14

